icons/vip-diamond-line.svg

<svg xmlns="http://www.w3.org/2000/svg" width="24" height="24" fill="none"><g clip-path="url(#a)"><g><path fill="#121212" d="M4.873 3H19.127C19.2848 2.99998 19.4403 3.0373 19.581 3.1089C19.7216 3.18051 19.8432 3.28437 19.936 3.412L23.759 8.668C23.827 8.76152 23.8604 8.8757 23.8537 8.99112C23.8469 9.10653 23.8004 9.21603 23.722 9.301L12.367 21.602C12.277 21.6992 12.1522 21.7568 12.0198 21.7621C11.8874 21.7673 11.7584 21.7198 11.661 21.63C11.654 21.624 7.861 17.515 0.278003 9.301C0.199607 9.21603 0.153076 9.10653 0.14633 8.99112C0.139584 8.8757 0.173039 8.76152 0.241003 8.668L4.064 3.412C4.15678 3.28437 4.27845 3.18051 4.41905 3.1089C4.55966 3.0373 4.71521 2.99998 4.873 3ZM5.383 5L2.583 8.85L12 19.05L21.417 8.85L18.617 5H5.383Z"/></g></g><defs><clipPath id="a"><rect width="24" height="24" fill="white"/></clipPath></defs></svg>

<svg width="24" height="24" fill="none" xmlns="http://www.w3.org/2000/svg"><g clip-path="url(#a)"><path d="M4.873 3h14.254a1 1 0 0 1 .809.412l3.823 5.256a.5.5 0 0 1-.037.633L12.367 21.602a.5.5 0 0 1-.706.028c-.007-.006-3.8-4.115-11.383-12.329a.5.5 0 0 1-.037-.633l3.823-5.256A1 1 0 0 1 4.873 3Zm.51 2-2.8 3.85L12 19.05l9.417-10.2-2.8-3.85H5.383Z" /></g><defs><clipPath id="a"><path fill="#fff" d="M0 0h24v24H0z"/></clipPath></defs></svg>
